X: 1
T: The Girl Who Broke My Heart
R: reel
M: 4/4
L: 1/8
K: Gmix
(dc) | BGFD EC~C2 | DG{A}G^F GABc | defd cAGF | DE{G}FE F2 (dc) |
BGFD EC~C2 | DG{A}G^F GABc | defd cAGF | DG{A}G^F G2 ||
D^F | G2 (Bd) gdBG | F2 (Ac) fcAF | G2 (BG) gdBd | "tr"cBcd cAFA |
G2 (Bd) gdBG | F2 (Ac) fcdB | GABd cAGF | DG{A}G^F G2 ||


Tune 669	Setting 13710

